assets/icons/work_icon.svg

<svg width="24" height="24" viewBox="0 0 24 24" fill="none" xmlns="http://www.w3.org/2000/svg">
<path d="M11.9609 16.5186V13.8906" stroke="white" stroke-width="1.5" stroke-linecap="round" stroke-linejoin="round"/>
<path d="M21.0895 11.4785L21.0605 11.4995C18.6385 12.9915 15.4405 13.8925 11.9565 13.8925C8.47252 13.8925 5.28352 12.9915 2.86252 11.4995L2.83252 11.4785" stroke="white" stroke-width="1.5" stroke-linecap="round" stroke-linejoin="round"/>
<path fill-rule="evenodd" clip-rule="evenodd" d="M11.961 5.14844C18.87 5.14844 21.172 7.19944 21.172 13.3514C21.172 19.5034 18.87 21.5544 11.961 21.5544C5.053 21.5544 2.75 19.5034 2.75 13.3514C2.75 7.19944 5.053 5.14844 11.961 5.14844Z" stroke="white" stroke-width="1.5" stroke-linecap="round" stroke-linejoin="round"/>
<path d="M15.2237 5.37017V4.74017C15.2237 3.47617 14.3007 2.45117 13.1637 2.45117H10.7587C9.62173 2.45117 8.69873 3.47617 8.69873 4.74017V5.37017" stroke="white" stroke-width="1.5" stroke-linecap="round" stroke-linejoin="round"/>
</svg>

<svg width="24" height="24" fill="none" xmlns="http://www.w3.org/2000/svg"><path d="M11.96 16.519V13.89M21.09 11.479l-.03.02c-2.421 1.492-5.62 2.393-9.103 2.393-3.484 0-6.673-.9-9.094-2.393l-.03-.02" stroke="#fff" stroke-width="1.5" stroke-linecap="round" stroke-linejoin="round"/><path clip-rule="evenodd" d="M11.961 5.148c6.909 0 9.211 2.051 9.211 8.203 0 6.152-2.302 8.203-9.211 8.203-6.908 0-9.211-2.05-9.211-8.203 0-6.152 2.303-8.203 9.211-8.203z" stroke="#fff" stroke-width="1.5" stroke-linecap="round" stroke-linejoin="round"/><path d="M15.224 5.37v-.63c0-1.264-.923-2.289-2.06-2.289h-2.405c-1.137 0-2.06 1.025-2.06 2.29v.63" stroke="#fff" stroke-width="1.5" stroke-linecap="round" stroke-linejoin="round"/></svg>
